static/img/content/touch.svg

<svg width="45" height="45" viewBox="0 0 45 45" fill="none" xmlns="http://www.w3.org/2000/svg">
<path d="M14.5129 28.3396C15.8159 27.0367 15.8159 24.9163 14.5129 23.6134C13.8816 22.9824 13.0425 22.6346 12.1498 22.6346C11.6338 22.6346 11.136 22.7513 10.6859 22.9714C9.09874 20.7006 8.26275 18.0433 8.26275 15.2483C8.26275 8.0952 13.8507 2.16945 20.9839 1.75747C21.469 1.72931 21.8391 1.31355 21.8113 0.828778C21.7831 0.343662 21.3674 -0.0254094 20.8826 0.00136972C12.8197 0.467259 6.50391 7.16446 6.50391 15.2483C6.50391 18.4735 7.48959 21.537 9.35829 24.139C8.50445 25.4354 8.64727 27.2001 9.78676 28.3396C10.4181 28.9706 11.2572 29.3184 12.1498 29.3184C13.0425 29.3184 13.8816 28.9706 14.5129 28.3396ZM11.0303 24.8573C11.3389 24.5486 11.7444 24.3941 12.1498 24.3941C12.555 24.3941 12.9604 24.5486 13.2691 24.8573C13.8864 25.4742 13.8864 26.4788 13.2691 27.0957C12.6518 27.713 11.6476 27.713 11.0303 27.0957C10.4133 26.4788 10.4133 25.4745 11.0303 24.8573Z" fill="white"/>
<path d="M35.3358 30.469C34.78 30.469 34.2574 30.6139 33.8039 30.8679C33.4019 29.5932 32.2085 28.6662 30.8026 28.6662C29.913 28.6662 29.1086 29.0373 28.536 29.6326C28.377 29.4679 28.2002 29.3206 28.009 29.1932C30.0359 28.2858 31.86 26.9379 33.336 25.2306C35.7303 22.4599 37.049 18.9148 37.049 15.2485C37.049 12.025 36.0633 8.95981 34.1949 6.35742C35.0488 5.06104 34.906 3.2967 33.7661 2.15687C32.4632 0.85396 30.3432 0.85396 29.04 2.15687C27.737 3.45978 27.737 5.58014 29.04 6.88305C29.6916 7.53468 30.5471 7.86049 31.403 7.86049C31.9046 7.86049 32.4055 7.74754 32.8659 7.52369C34.4538 9.79512 35.2901 12.4545 35.2901 15.2485C35.2901 21.6102 30.9715 26.9877 24.882 28.4042V23.6705C28.3694 22.383 30.7521 19.012 30.7521 15.2485C30.7521 10.2995 26.7256 6.27297 21.7763 6.27297C16.8273 6.27297 12.8008 10.2991 12.8008 15.2485C12.8008 17.2016 13.4177 19.059 14.5843 20.6191C15.602 21.9796 17.0099 23.0364 18.5896 23.6393V36.5753L17.4847 34.7629C16.5564 33.2389 14.6183 32.7445 13.073 33.6365C11.6033 34.4852 11.0299 36.3474 11.7718 37.8834L15.0523 44.5105C15.2058 44.8206 15.5175 45.0001 15.8413 45.0001C15.9724 45.0001 16.1053 44.9709 16.2306 44.9088C16.6659 44.6932 16.8441 44.1655 16.6288 43.7305L13.3518 37.1109C13.0123 36.4074 13.2759 35.5505 13.9526 35.1598C14.652 34.7561 15.5628 34.9885 15.983 35.6782L18.718 40.1658C18.9233 40.5022 19.3274 40.6612 19.7067 40.5548C20.0861 40.4483 20.3484 40.1023 20.3484 39.7078V19.53C20.3484 18.7651 20.9708 18.143 21.7358 18.143C22.5007 18.143 23.1231 18.7651 23.1231 19.53V23.0086C23.1228 23.0148 23.1231 23.0209 23.1231 23.0275V36.2323C23.1231 36.7181 23.5166 37.1116 24.0024 37.1116C24.4882 37.1116 24.882 36.7181 24.882 36.2323V31.8124C24.882 31.0475 25.5041 30.425 26.269 30.425C27.0339 30.425 27.6564 31.0475 27.6564 31.8124V36.5523C27.6564 37.0381 28.0502 37.4319 28.5356 37.4319C29.0214 37.4319 29.4152 37.0381 29.4152 36.5523V31.8124C29.4152 31.0475 30.0376 30.425 30.8026 30.425C31.5675 30.425 32.1896 31.0475 32.1896 31.8124V36.6117C32.1896 37.0975 32.5834 37.4913 33.0692 37.4913C33.555 37.4913 33.9484 37.0975 33.9484 36.6117V33.6152C33.9484 32.8503 34.5709 32.2278 35.3358 32.2278C36.1007 32.2278 36.7232 32.8503 36.7232 33.6152V44.1202C36.7232 44.606 37.1166 44.9998 37.6024 44.9998C38.0882 44.9998 38.482 44.606 38.482 44.1202V33.6152C38.482 31.8804 37.0706 30.469 35.3358 30.469ZM30.2838 5.63954C29.6665 5.02224 29.6665 4.01802 30.2838 3.40073C30.5925 3.09208 30.9976 2.93793 31.403 2.93793C31.8085 2.93793 32.214 3.09208 32.5226 3.40073C33.1396 4.01802 33.1396 5.02224 32.5226 5.63954C31.9053 6.25649 30.9008 6.25649 30.2838 5.63954ZM14.5596 15.2485C14.5596 11.269 17.7972 8.03147 21.7766 8.03147C25.7557 8.03147 28.9933 11.269 28.9933 15.2485C28.9933 18.0507 27.3511 20.5827 24.882 21.764V19.53C24.882 19.0363 24.7673 18.5687 24.5634 18.1523C25.3434 17.4004 25.8045 16.3522 25.8045 15.2485C25.8045 13.0272 23.9976 11.2202 21.7766 11.2202C19.5553 11.2202 17.7484 13.0272 17.7484 15.2485C17.7484 16.32 18.1848 17.3496 18.9349 18.1001C18.7149 18.5292 18.5896 19.0154 18.5896 19.53V21.727C16.1406 20.5301 14.5596 18.0483 14.5596 15.2485ZM20.14 16.8202C19.7345 16.4006 19.5073 15.8448 19.5073 15.2485C19.5073 13.997 20.5252 12.9791 21.7763 12.9791C23.0277 12.9791 24.0456 13.997 24.0456 15.2485C24.0456 15.8534 23.7998 16.4295 23.3816 16.8504C22.9024 16.5548 22.3386 16.3842 21.7358 16.3842C21.1535 16.3842 20.6083 16.5435 20.14 16.8202Z" fill="white"/>
<path d="M24.8905 2.07232C25.1219 2.07232 25.3488 1.97825 25.5122 1.81448C25.676 1.65106 25.7701 1.42413 25.7701 1.19273C25.7701 0.96167 25.676 0.734734 25.5122 0.570969C25.3488 0.407547 25.1219 0.313477 24.8905 0.313477C24.6594 0.313477 24.4325 0.407547 24.2691 0.570969C24.1053 0.734734 24.0112 0.96167 24.0112 1.19273C24.0112 1.42413 24.1053 1.65106 24.2691 1.81448C24.4325 1.97825 24.6594 2.07232 24.8905 2.07232Z" fill="white"/>
</svg>

<svg width="45" height="45" viewBox="0 0 45 45" fill="none" xmlns="http://www.w3.org/2000/svg"><path d="M14.513 28.34a3.346 3.346 0 0 0 0-4.727 3.321 3.321 0 0 0-2.363-.978c-.516 0-1.014.116-1.464.336a13.38 13.38 0 0 1-2.423-7.723c0-7.153 5.588-13.079 12.72-13.49a.88.88 0 0 0-.1-1.757C12.82.467 6.503 7.164 6.503 15.248c0 3.226.987 6.289 2.855 8.891a3.348 3.348 0 0 0 .429 4.2c.631.632 1.47.98 2.363.98s1.732-.348 2.363-.98zm-3.483-3.483a1.578 1.578 0 0 1 1.12-.463 1.584 1.584 0 0 1 1.12 2.702 1.585 1.585 0 0 1-2.24 0 1.585 1.585 0 0 1 0-2.239z" fill="#fff"/><path d="M35.336 30.469c-.556 0-1.079.145-1.532.399a3.152 3.152 0 0 0-3.001-2.202c-.89 0-1.694.371-2.267.967a3.194 3.194 0 0 0-.527-.44 15.27 15.27 0 0 0 9.04-13.945c0-3.223-.986-6.288-2.854-8.89a3.347 3.347 0 0 0-.429-4.201 3.346 3.346 0 0 0-4.726 0 3.346 3.346 0 0 0 0 4.726 3.346 3.346 0 0 0 3.826.64 13.385 13.385 0 0 1 2.424 7.725c0 6.362-4.319 11.74-10.408 13.156v-4.733c3.487-1.288 5.87-4.659 5.87-8.422 0-4.95-4.026-8.976-8.976-8.976-4.949 0-8.975 4.026-8.975 8.976 0 1.953.617 3.81 1.783 5.37a9.07 9.07 0 0 0 4.006 3.02v12.936l-1.105-1.812a3.239 3.239 0 0 0-4.412-1.127 3.274 3.274 0 0 0-1.301 4.247l3.28 6.627a.88.88 0 1 0 1.577-.78l-3.277-6.62a1.506 1.506 0 0 1 .6-1.95 1.51 1.51 0 0 1 2.031.518l2.735 4.488a.88.88 0 0 0 1.63-.458V19.53a1.389 1.389 0 0 1 2.775 0v16.702a.88.88 0 1 0 1.759 0v-4.42c0-.765.622-1.387 1.387-1.387a1.39 1.39 0 0 1 1.387 1.387v4.74a.88.88 0 1 0 1.76 0v-4.74a1.39 1.39 0 0 1 1.387-1.387c.764 0 1.387.622 1.387 1.387v4.8a.88.88 0 1 0 1.758 0v-2.997a1.39 1.39 0 0 1 1.388-1.387 1.39 1.39 0 0 1 1.387 1.387V44.12a.88.88 0 1 0 1.759 0V33.615a3.15 3.15 0 0 0-3.146-3.146zm-5.052-24.83a1.585 1.585 0 0 1 0-2.238 1.578 1.578 0 0 1 1.119-.463c.405 0 .811.154 1.12.463a1.585 1.585 0 0 1 0 2.239 1.585 1.585 0 0 1-2.24 0zM14.56 15.25c0-3.98 3.237-7.218 7.217-7.218 3.979 0 7.216 3.238 7.216 7.217a7.253 7.253 0 0 1-4.111 6.516V19.53c0-.494-.115-.961-.319-1.378a4.046 4.046 0 0 0 1.242-2.904 4.033 4.033 0 0 0-4.028-4.028 4.033 4.033 0 0 0-4.029 4.028 4.05 4.05 0 0 0 1.187 2.852c-.22.43-.345.915-.345 1.43v2.197a7.18 7.18 0 0 1-4.03-6.479zm5.58 1.571a2.272 2.272 0 0 1 1.636-3.841 2.272 2.272 0 0 1 2.27 2.27 2.28 2.28 0 0 1-.664 1.601 3.125 3.125 0 0 0-1.646-.466c-.582 0-1.128.16-1.596.436zm4.75-14.749a.885.885 0 0 0 .622-.258.885.885 0 0 0 .258-.621.886.886 0 0 0-.258-.622.886.886 0 0 0-.622-.258.886.886 0 0 0-.62.258.886.886 0 0 0-.259.622.885.885 0 0 0 .88.88z" fill="#fff"/></svg>
